assets/icons/sliders-solid.svg

<svg fill="#fff" xmlns="http://www.w3.org/2000/svg" viewBox="0 0 512 512"><!--! Font Awesome Pro 6.1.1 by @fontawesome - https://fontawesome.com License - https://fontawesome.com/license (Commercial License) Copyright 2022 Fonticons, Inc.--><path d="M0 416c0-17.7 14.33-32 32-32h54.66C99 355.7 127.2 336 160 336c32.8 0 60.1 19.7 73.3 48H480c17.7 0 32 14.3 32 32s-14.3 32-32 32H233.3c-13.2 28.3-40.5 48-73.3 48s-61-19.7-73.34-48H32c-17.67 0-32-14.3-32-32zm192 0c0-17.7-14.3-32-32-32s-32 14.3-32 32 14.3 32 32 32 32-14.3 32-32zm160-240c32.8 0 60.1 19.7 73.3 48H480c17.7 0 32 14.3 32 32s-14.3 32-32 32h-54.7c-13.2 28.3-40.5 48-73.3 48s-61-19.7-73.3-48H32c-17.67 0-32-14.3-32-32s14.33-32 32-32h246.7c12.3-28.3 40.5-48 73.3-48zm32 80c0-17.7-14.3-32-32-32s-32 14.3-32 32 14.3 32 32 32 32-14.3 32-32zm96-192c17.7 0 32 14.33 32 32 0 17.7-14.3 32-32 32H265.3c-13.2 28.3-40.5 48-73.3 48s-61-19.7-73.3-48H32c-17.67 0-32-14.3-32-32 0-17.67 14.33-32 32-32h86.7C131 35.75 159.2 16 192 16s60.1 19.75 73.3 48H480zM160 96c0 17.7 14.3 32 32 32s32-14.3 32-32c0-17.67-14.3-32-32-32s-32 14.33-32 32z"/></svg>

<svg fill="#fff" xmlns="http://www.w3.org/2000/svg" viewBox="0 0 512 512"><!--! Font Awesome Pro 6.1.1 by @fontawesome - https://fontawesome.com License - https://fontawesome.com/license (Commercial License) Copyright 2022 Fonticons, Inc. --><path d="M0 416C0 398.3 14.33 384 32 384H86.66C99 355.7 127.2 336 160 336C192.8 336 220.1 355.7 233.3 384H480C497.7 384 512 398.3 512 416C512 433.7 497.7 448 480 448H233.3C220.1 476.3 192.8 496 160 496C127.2 496 99 476.3 86.66 448H32C14.33 448 0 433.7 0 416V416zM192 416C192 398.3 177.7 384 160 384C142.3 384 128 398.3 128 416C128 433.7 142.3 448 160 448C177.7 448 192 433.7 192 416zM352 176C384.8 176 412.1 195.7 425.3 224H480C497.7 224 512 238.3 512 256C512 273.7 497.7 288 480 288H425.3C412.1 316.3 384.8 336 352 336C319.2 336 291 316.3 278.7 288H32C14.33 288 0 273.7 0 256C0 238.3 14.33 224 32 224H278.7C291 195.7 319.2 176 352 176zM384 256C384 238.3 369.7 224 352 224C334.3 224 320 238.3 320 256C320 273.7 334.3 288 352 288C369.7 288 384 273.7 384 256zM480 64C497.7 64 512 78.33 512 96C512 113.7 497.7 128 480 128H265.3C252.1 156.3 224.8 176 192 176C159.2 176 131 156.3 118.7 128H32C14.33 128 0 113.7 0 96C0 78.33 14.33 64 32 64H118.7C131 35.75 159.2 16 192 16C224.8 16 252.1 35.75 265.3 64H480zM160 96C160 113.7 174.3 128 192 128C209.7 128 224 113.7 224 96C224 78.33 209.7 64 192 64C174.3 64 160 78.33 160 96z"/></svg>
